X:1
T:Title
%%score ( 1 2 ) ( 3 4 )
L:1/8
Q:1/4=180
M:none
K:F
V:1 treble nm="S/A"
V:2 treble 
V:3 bass nm="T/B"
V:4 bass 
V:1
"^Tenderly" A4"^Half-note = 90" G2 F4 G2 | A2 B2 c4 | d4 c2 B4 A2 | G4 F4 | A4 c2 B4 A2 | %5
w: Gen- tle Ma- ry|laid her child|Low- ly in a|man- ger;|There he lay, the|
w: An- gels sang a-|bout his birth;|Wise men sought and|found him;|Hea- ven's star shone|
w: Gen- tle Ma- ry|laid her child|Low- ly in a|man- ger;|He is still the|
 G2 F2 E4 | F4 G2 A4 A2 | B4 A4 | A4 B2 c4 B2 | A2 G2 A4 | G4 G2 A2 c2 | =B4 c4 | c4 A2 d4 c2 | %13
w: un- de- filed,|To the world a|stran- ger.|Such a babe in|such a place,|Can he be the|Sa- viour?|Ask the saved of|
w: bright- ly forth,|Glo- ry all a-|round him.|Shep- herds saw the|won- drous sight,|Heard the an- gels|sing- ing;|All the plains were|
w: un- de- filed,|But no more a|stran- ger.|Son of God, of|hum- ble birth,|Beau- ti- ful the|sto- ry;|Praise his Name in|
 B2 A2 G4 | A4 c2 B4 A2 | G4 F4 |] %16
w: all the race|Who have found his|fa- vor.|
w: lit that night.|All the hills were|ring- ing.|
w: all the earth,|Hail the King of|Glo- ry!|
V:2
 F4 E2 D4 D2 | F2 F2 E4 | F4 F2 F4 F2 | E4 F4 | F4 F2 F4 F2 | E2 D2 ^C4 | D4 E2 F4 F2 | G4 ^F4 | %8
 D4 D2 F4 D2 | F2 D2 E4 | D4 D2 F2 E2 | G4 E4 | E4 F2 F4 F2 | F2 F2 E4 | F4 G2 F4 F2 | %15
 (F2 E2) F4 |] %16
V:3
 C4 C2 A,4 B,2 | C2 F,2 G,4 | B,4 C2 D4 C2 | C4 A,4 | C4 A,2 D4 C2 | C2 A,2 A,4 | A,4 C2 C4 D2 | %7
 D4 D4 | ^F,4 G,2 A,4 B,2 | C2 D2 ^C4 | D4 B,2 C2 C2 | D4 C4 | G,4 F,2 B,4 C2 | D2 C2 C4 | %14
 C4 C2 D4 C2 | C4 A,4 |] %16
V:4
 F,4 C,2 D,4 G,2 | F,2 D,2 C,4 | B,,4 A,,2 B,,4 F,,2 | C,4 F,,4 | F,4 F,2 B,,4 F,2 | C,2 D,2 A,,4 | %6
 D,4 C,2 F,4 D,2 | G,4 D,4 | D,4 G,2 =F,4 G,2 | A,2 B,2 A,4 | B,4 G,2 F,2 A,2 | G,4 C,4 | %12
 C,4 D,2 B,,4 A,,2 | B,,2 F,2 C,4 | F,4 E,2 D,4 F,2 | C,4 F,4 |] %16

